X: 37470
T: Slide From Grace
R: slip jig
M: 9/8
K: Eminor
|:G2E EDE GAB|G2E EDB, D2B,|G2E EDE GAB|1 B2A AGE GED:|2 B2 AA2 G ABd||
e2B dBA GAB|DED DB,D GBd|e2B dBA GAB|B2 AA2 G ABd|
e2B dBA GAB|DED DB,D GAB|A2G ABD EGA|zBd edB A2 B||

